file/nanotronics-imaging.svg

<svg clip-rule="evenodd" fill-rule="evenodd" stroke-linejoin="round" stroke-miterlimit="1.41421" viewBox="0 0 560 400" xmlns="http://www.w3.org/2000/svg"><g fill-rule="nonzero" transform="matrix(1.11111 0 0 1.11111 180 40.9333)"><path d="m90 130.23 43.76 78.4h46.24v-208.63zm0 0-43.76-78.41h-46.24v208.63z" fill="#f02b1e"/><path d="m11.86 285.8v-10.47c0-3.06-.24-5.92-3.61-5.92-3.68 0-4.26 4.12-4.26 7.06v9.32h-3.99v-19.24h3.85l.07 2.9c1.162-2.015 3.344-3.235 5.67-3.17 4.4 0 6.26 2.67 6.26 7.33v12.19zm53.21.42c-5.64 0-9-4-9-10.16s3.54-10 9-10 8.9 3.9 8.9 10-3.37 10.16-8.9 10.16zm0-17.26c-3.61 0-4.81 3.7-4.81 7.14s1.2 7.33 4.81 7.33 4.81-4 4.81-7.33-1.2-7.1-4.81-7.1zm17.93 17.04c-3.09 0-4.85-1.11-4.85-4.77v-11.7h-3.37v-3h3.33v-3.53l4-1.79v5.27h4v3h-4v10.08c0 2.21.17 3.21 2.37 3.21.55 0 1-.15 1.65-.19v3.13c-1.035.168-2.081.265-3.13.29zm14.1-15.71c-3.4 0-4.61 2.14-4.61 5.69v9.81h-4v-19.24h3.78l.1 3.17c.912-2.083 3.017-3.404 5.29-3.32.311.01.622.037.93.08v4c-.492-.097-.99-.16-1.49-.19zm11.33 15.93c-5.64 0-9-4-9-10.16s3.54-10 9-10 8.9 3.9 8.9 10-3.33 10.16-8.9 10.16zm0-17.26c-3.61 0-4.81 3.7-4.81 7.14s1.2 7.33 4.81 7.33 4.81-4 4.81-7.33-1.24-7.1-4.81-7.1zm31.04 16.84v-19.29h4v19.29zm-90.04 0v-10.47c0-3.06-.24-5.92-3.61-5.92-3.68 0-4.26 4.12-4.26 7.06v9.32h-4v-19.24h3.85l.07 2.9c1.162-2.015 3.344-3.235 5.67-3.17 4.4 0 6.26 2.67 6.26 7.33v12.19zm82.5 0v-10.47c0-3.06-.24-5.92-3.61-5.92-3.68 0-4.26 4.12-4.26 7.06v9.32h-4v-19.24h3.85l.07 2.9c1.162-2.015 3.344-3.235 5.67-3.17 4.4 0 6.26 2.67 6.26 7.33v12.19zm26.67-6.4c-.22 2.36-1.48 4-3.75 4-3.51 0-4.61-4-4.61-7.26 0-3.44 1.07-7.29 4.74-7.29 2.27 0 3.51 1.64 3.64 4.12h3.92c-.38-4.85-3.47-7-7.56-7-5.71 0-8.9 4.28-8.9 10.35s3 10 8.66 10c4.26 0 7.54-2.44 7.84-6.89zm-128.01 6.39c-.14-.92-.21-1.79-.28-2.63-1.159 2.019-3.377 3.206-5.7 3.05-3.3 0-6.11-1.87-6.11-5.84 0-6.56 7.42-6.49 11.61-6.49v-1c0-2.63-.79-4.2-3.33-4.2-2 0-3 1-3.16 3.28h-3.84c0-4.54 3.47-5.91 6.9-5.91 4.6 0 7.31 1.64 7.31 7.33v5.68c-.005 2.244.109 4.488.34 6.72zm-1.85-9.54c-2.44 0-6.28.46-6.28 3.93v.045c0 1.755 1.444 3.2 3.2 3.2.056 0 .113-.002.17-.005 3.81 0 4.33-3.66 4.33-7.13-.53-.04-.98-.04-1.42-.04zm145.32-1.58c-.65-.21-1.33-.39-1.94-.59-2-.68-3.44-1.33-3.44-2.89s1.29-2.35 3.15-2.35 3.25 1.26 3.39 3.53h3.9c-.39-4.48-3.84-6.4-7.51-6.4-3.83 0-6.65 2.16-6.75 5.52-.11 3.59 2.79 4.75 5.35 5.55.65.21 1.26.38 1.87.59.558.181 1.103.402 1.63.66.945.404 1.547 1.353 1.51 2.38-.06 2-1.65 2.78-3.27 2.73-2.06-.06-3.46-1.56-3.66-4h-4c.24 4.67 3.6 6.91 7.73 6.91 3.43 0 7-1.48 7.18-6 .11-3.31-2.52-4.79-5.14-5.64zm-34.73-15.61h4.26v3.93h-4.26z" fill="#fff"/></g></svg>

<?xml version="1.0" encoding="UTF-8" standalone="no"?>
<!DOCTYPE svg PUBLIC "-//W3C//DTD SVG 1.1//EN" "http://www.w3.org/Graphics/SVG/1.1/DTD/svg11.dtd">
<svg width="100%" height="100%" viewBox="0 0 560 400" version="1.1" xmlns="http://www.w3.org/2000/svg" xmlns:xlink="http://www.w3.org/1999/xlink" xml:space="preserve" xmlns:serif="http://www.serif.com/" style="fill-rule:evenodd;clip-rule:evenodd;stroke-linejoin:round;stroke-miterlimit:1.41421;">
    <g transform="matrix(1.11111,0,0,1.11111,180,40.9333)">
        <path d="M90,130.23L133.76,208.63L180,208.63L180,0L90,130.23ZM90,130.23L46.24,51.82L0,51.82L0,260.45L90,130.23Z" style="fill:rgb(240,43,30);fill-rule:nonzero;"/>
        <path d="M11.86,285.8L11.86,275.33C11.86,272.27 11.62,269.41 8.25,269.41C4.57,269.41 3.99,273.53 3.99,276.47L3.99,285.79L0,285.79L0,266.55L3.85,266.55L3.92,269.45C5.082,267.435 7.264,266.215 9.59,266.28C13.99,266.28 15.85,268.95 15.85,273.61L15.85,285.8L11.86,285.8ZM65.07,286.22C59.43,286.22 56.07,282.22 56.07,276.06C56.07,269.9 59.61,266.06 65.07,266.06C70.53,266.06 73.97,269.96 73.97,276.06C73.97,282.16 70.6,286.22 65.07,286.22ZM65.07,268.96C61.46,268.96 60.26,272.66 60.26,276.1C60.26,279.54 61.46,283.43 65.07,283.43C68.68,283.43 69.88,279.43 69.88,276.1C69.88,272.77 68.68,269 65.07,269L65.07,268.96ZM83,286C79.91,286 78.15,284.89 78.15,281.23L78.15,269.53L74.78,269.53L74.78,266.53L78.11,266.53L78.11,263L82.11,261.21L82.11,266.48L86.11,266.48L86.11,269.48L82.11,269.48L82.11,279.56C82.11,281.77 82.28,282.77 84.48,282.77C85.03,282.77 85.48,282.62 86.13,282.58L86.13,285.71C85.095,285.878 84.049,285.975 83,286ZM97.1,270.29C93.7,270.29 92.49,272.43 92.49,275.98L92.49,285.79L88.49,285.79L88.49,266.55L92.27,266.55L92.37,269.72C93.282,267.637 95.387,266.316 97.66,266.4C97.971,266.41 98.282,266.437 98.59,266.48L98.59,270.48C98.098,270.383 97.6,270.32 97.1,270.29ZM108.43,286.22C102.79,286.22 99.43,282.22 99.43,276.06C99.43,269.9 102.97,266.06 108.43,266.06C113.89,266.06 117.33,269.96 117.33,276.06C117.33,282.16 114,286.22 108.43,286.22ZM108.43,268.96C104.82,268.96 103.62,272.66 103.62,276.1C103.62,279.54 104.82,283.43 108.43,283.43C112.04,283.43 113.24,279.43 113.24,276.1C113.24,272.77 112,269 108.43,269L108.43,268.96ZM139.47,285.8L139.47,266.51L143.47,266.51L143.47,285.8L139.47,285.8ZM49.43,285.8L49.43,275.33C49.43,272.27 49.19,269.41 45.82,269.41C42.14,269.41 41.56,273.53 41.56,276.47L41.56,285.79L37.56,285.79L37.56,266.55L41.41,266.55L41.48,269.45C42.642,267.435 44.824,266.215 47.15,266.28C51.55,266.28 53.41,268.95 53.41,273.61L53.41,285.8L49.43,285.8ZM131.93,285.8L131.93,275.33C131.93,272.27 131.69,269.41 128.32,269.41C124.64,269.41 124.06,273.53 124.06,276.47L124.06,285.79L120.06,285.79L120.06,266.55L123.91,266.55L123.98,269.45C125.142,267.435 127.324,266.215 129.65,266.28C134.05,266.28 135.91,268.95 135.91,273.61L135.91,285.8L131.93,285.8ZM158.6,279.4C158.38,281.76 157.12,283.4 154.85,283.4C151.34,283.4 150.24,279.4 150.24,276.14C150.24,272.7 151.31,268.85 154.98,268.85C157.25,268.85 158.49,270.49 158.62,272.97L162.54,272.97C162.16,268.12 159.07,265.97 154.98,265.97C149.27,265.97 146.08,270.25 146.08,276.32C146.08,282.39 149.08,286.32 154.74,286.32C159,286.32 162.28,283.88 162.58,279.43L158.6,279.4ZM30.59,285.79C30.45,284.87 30.38,284 30.31,283.16C29.151,285.179 26.933,286.366 24.61,286.21C21.31,286.21 18.5,284.34 18.5,280.37C18.5,273.81 25.92,273.88 30.11,273.88L30.11,272.88C30.11,270.25 29.32,268.68 26.78,268.68C24.78,268.68 23.78,269.68 23.62,271.96L19.78,271.96C19.78,267.42 23.25,266.05 26.68,266.05C31.28,266.05 33.99,267.69 33.99,273.38L33.99,279.06C33.985,281.304 34.099,283.548 34.33,285.78L30.59,285.79ZM28.74,276.25C26.3,276.25 22.46,276.71 22.46,280.18C22.46,280.195 22.46,280.21 22.46,280.225C22.46,281.98 23.904,283.425 25.66,283.425C25.716,283.425 25.773,283.423 25.83,283.42C29.64,283.42 30.16,279.76 30.16,276.29C29.63,276.25 29.18,276.25 28.74,276.25ZM174.06,274.67C173.41,274.46 172.73,274.28 172.12,274.08C170.12,273.4 168.68,272.75 168.68,271.19C168.68,269.63 169.97,268.84 171.83,268.84C173.69,268.84 175.08,270.1 175.22,272.37L179.12,272.37C178.73,267.89 175.28,265.97 171.61,265.97C167.78,265.97 164.96,268.13 164.86,271.49C164.75,275.08 167.65,276.24 170.21,277.04C170.86,277.25 171.47,277.42 172.08,277.63C172.638,277.811 173.183,278.032 173.71,278.29C174.655,278.694 175.257,279.643 175.22,280.67C175.16,282.67 173.57,283.45 171.95,283.4C169.89,283.34 168.49,281.84 168.29,279.4L164.29,279.4C164.53,284.07 167.89,286.31 172.02,286.31C175.45,286.31 179.02,284.83 179.2,280.31C179.31,277 176.68,275.52 174.06,274.67ZM139.33,259.06L143.59,259.06L143.59,262.99L139.33,262.99L139.33,259.06Z" style="fill:white;fill-rule:nonzero;"/>
    </g>
</svg>
